symbols/web/coffee_maker/materialsymbolsoutlined/coffee_maker_wght700fill1_40px.svg

<svg xmlns="http://www.w3.org/2000/svg" height="40" width="40"><path d="M34.125 37.833H10.25q-1.792 0-3.083-1.271-1.292-1.27-1.292-3.104V6.542q0-1.834 1.292-3.125 1.291-1.292 3.083-1.292h23.875v4.417h-3.542v1.541q0 1-.729 1.73-.729.729-1.729.729H16.292q-.959 0-1.688-.729-.729-.73-.729-1.73V6.542H10.25v26.916h6.375q-1.292-1.125-2.021-2.604-.729-1.479-.729-3.437v-8.125h16.708v8.125q0 1.958-.75 3.437-.75 1.479-2.041 2.604h6.333ZM22.167 16.667q.708 0 1.187-.479.479-.48.479-1.146 0-.709-.479-1.188t-1.187-.479q-.667 0-1.146.479-.479.479-.479 1.188 0 .666.479 1.146.479.479 1.146.479Z"/></svg>

<svg xmlns="http://www.w3.org/2000/svg" height="40" width="40"><path d="M34.125 37.833H10.25Q8.458 37.833 7.167 36.562Q5.875 35.292 5.875 33.458V6.542Q5.875 4.708 7.167 3.417Q8.458 2.125 10.25 2.125H34.125V6.542H30.583V8.083Q30.583 9.083 29.854 9.813Q29.125 10.542 28.125 10.542H16.292Q15.333 10.542 14.604 9.813Q13.875 9.083 13.875 8.083V6.542H10.25Q10.25 6.542 10.25 6.542Q10.25 6.542 10.25 6.542V33.458Q10.25 33.458 10.25 33.458Q10.25 33.458 10.25 33.458H16.625Q15.333 32.333 14.604 30.854Q13.875 29.375 13.875 27.417V19.292H30.583V27.417Q30.583 29.375 29.833 30.854Q29.083 32.333 27.792 33.458H34.125ZM22.167 16.667Q22.875 16.667 23.354 16.188Q23.833 15.708 23.833 15.042Q23.833 14.333 23.354 13.854Q22.875 13.375 22.167 13.375Q21.5 13.375 21.021 13.854Q20.542 14.333 20.542 15.042Q20.542 15.708 21.021 16.188Q21.5 16.667 22.167 16.667Z"/></svg>
